apps/www/public/images/ga/enterprise/1-password--light.svg

<svg width="352" height="67" viewBox="0 0 352 67" fill="none" xmlns="http://www.w3.org/2000/svg">
<g clip-path="url(#clip0_868_2064)">
<path fill-rule="evenodd" clip-rule="evenodd" d="M19.9575 10.43V47.691C19.9575 48.855 20.0305 49.073 21.1255 49.145L27.1075 49.655V55.404H1.50048V49.656L7.77348 49.146C8.79548 49.073 8.94148 48.782 8.94148 47.691V22.564C8.94148 21.521 8.15348 21.694 2.66948 23.543L0.646484 17.576L13.1795 10.43H19.9575ZM44.1375 10.655H48.4435C53.6215 10.655 57.9265 11.891 57.9265 18.877C57.9265 27.099 52.6015 28.19 47.7865 28.19H44.1375V10.655ZM49.4635 35.975H44.1375V47.618C44.1375 48.783 44.2115 48.928 45.3065 49.073L55.7385 49.655V55.403H27.1395V49.655L31.7355 49.145C32.7555 49.001 32.9035 48.783 32.9035 47.691V10.51C32.9035 9.41902 32.7565 9.12702 31.7355 9.05402L27.1395 8.54502V2.72402H51.8715C65.3695 2.72402 69.4535 9.85502 69.4535 18.222C69.4535 30.882 61.7945 35.976 49.4635 35.976V35.975ZM90.3285 45.8C88.6515 47.036 86.1705 48.42 83.6895 48.42C81.2825 48.42 79.5315 47.328 79.5315 44.417C79.5315 41.507 81.0635 40.415 85.3665 40.125L90.3285 39.761V45.8ZM123.866 31.903C129.629 33.212 136.123 35.25 136.123 43.763C136.123 52.639 128.901 56.278 119.635 56.278C113.635 56.278 107.769 54.854 105.723 53.934V55.404H92.2985L91.5685 51.475L91.2035 51.403C88.4315 54.095 84.7835 56.278 78.9465 56.278C69.7555 56.278 68.2945 50.021 68.2945 45.508C68.2945 38.233 72.8195 34.886 81.9385 34.304L90.3285 33.722V29.72C90.3285 26.3 89.9645 23.972 85.4395 23.972C81.9395 23.972 80.1145 24.481 80.1145 28.847L69.8265 27.973C69.8265 18.151 78.8015 16.767 85.5135 16.767C96.6035 16.767 101.053 19.752 101.053 29.938V47.619C101.053 48.783 101.126 48.929 102.22 49.074L105.189 49.567V43.107L112.995 43.69L113.725 47.837C113.797 48.492 113.945 48.783 114.601 48.928C115.476 49.22 117.446 49.656 120.219 49.656C124.085 49.656 126.273 48.566 126.273 45.873C126.273 42.963 123.355 42.089 119.635 41.434C113.507 40.343 105.481 39.034 105.481 29.502C105.481 20.479 113.214 16.767 121.604 16.767C127.367 16.767 132.985 18.078 135.029 18.877V29.428L127.222 28.92L126.492 25.135C126.42 24.553 126.273 24.263 125.764 24.117C124.815 23.827 123.064 23.535 121.094 23.535C117.446 23.535 115.403 24.917 115.403 27.245C115.403 30.229 119.416 30.883 123.866 31.903ZM335.889 44.563C333.919 46.237 331.22 47.692 328.74 47.692C324.142 47.692 322.1 43.762 322.1 36.705C322.1 30.229 324.215 25.208 329.615 25.208C331.729 25.208 334.065 26.154 335.889 27.392V44.563ZM347.999 49.147L351.5 49.657V55.405H337.93L337.202 51.33L336.691 51.256C333.627 54.24 330.053 56.277 324.727 56.277C316.119 56.277 310.573 50.82 310.573 36.923C310.573 22.298 317.94 16.768 326.039 16.768C330.271 16.768 333.553 18.223 336.327 20.261V9.20002C336.327 8.47202 336.034 7.96302 335.378 7.74502L331.365 6.36202L332.167 0.468018H346.832V47.763C346.832 48.855 346.905 49.002 347.999 49.147ZM225.142 23.898C224.122 24.043 223.684 24.408 223.392 25.353L214.419 55.403H202.89L197.2 31.03H196.763L190.999 55.404H177.866L168.673 25.282C168.383 24.408 168.016 24.262 167.141 24.044L166.431 23.893V29.428L158.625 28.92L157.895 25.135C157.823 24.553 157.676 24.263 157.167 24.117C156.217 23.827 154.467 23.535 152.497 23.535C148.849 23.535 146.805 24.917 146.805 27.245C146.805 30.229 150.819 30.885 155.269 31.903C161.032 33.212 167.526 35.25 167.526 43.763C167.526 52.64 160.304 56.278 151.037 56.278C144.398 56.278 137.905 54.531 136.591 53.658V43.108L144.398 43.69L145.128 47.837C145.2 48.492 145.348 48.783 146.004 48.928C146.879 49.22 148.849 49.656 151.622 49.656C155.487 49.656 157.676 48.566 157.676 45.873C157.676 42.963 154.758 42.089 151.037 41.434C144.909 40.343 136.884 39.034 136.884 29.502C136.884 20.479 144.617 16.767 153.007 16.767C157.772 16.767 162.433 17.663 165.061 18.426L165.245 17.496H183.703V23.535L179.617 23.972L185.454 44.417H185.965L192.457 18.441H203.475L209.75 44.417H210.187L215.659 23.972L211.5 23.535L212.447 17.496H227.77V19.641C226.86 20.9785 226.058 22.3875 225.374 23.854L225.142 23.898ZM300.582 25.717C298.686 25.717 296.425 27.317 295.33 28.264V47.545C295.33 48.709 295.404 48.927 296.499 49.001L303.72 49.582V55.404H279.862V49.51L283.147 49.073C284.167 48.927 284.313 48.709 284.313 47.618V26.298C284.313 25.498 284.094 24.989 283.366 24.771L279.856 23.541C279.743 23.303 279.619 23.073 279.5 22.841L280.229 17.495H293.069L293.944 23.315H294.382C296.789 19.605 300 16.767 304.669 16.767C306.346 16.767 309.702 17.058 311.016 17.422V30.665L302.262 30.374L301.533 26.517C301.387 25.862 301.167 25.717 300.582 25.717Z" fill="#171717"/>
<path fill-rule="evenodd" clip-rule="evenodd" d="M252.5 12C265.755 12 276.5 22.745 276.5 36C276.5 49.255 265.755 60 252.5 60C239.245 60 228.5 49.255 228.5 36C228.5 22.745 239.245 12 252.5 12Z" fill="#198CFF"/>
<path fill-rule="evenodd" clip-rule="evenodd" d="M222.5 36C222.5 19.431 235.931 6 252.5 6C269.069 6 282.5 19.431 282.5 36C282.5 52.57 269.069 66 252.5 66C235.931 66 222.5 52.57 222.5 36ZM228.5 36C228.5 49.255 239.245 60 252.5 60C265.755 60 276.5 49.255 276.5 36C276.5 22.745 265.755 12 252.5 12C239.245 12 228.5 22.745 228.5 36Z" fill="white"/>
<path opacity="0.5" d="M221.5 36C221.5 53.121 235.38 67 252.5 67C269.62 67 283.5 53.121 283.5 36C283.5 18.88 269.62 5 252.5 5C235.38 5 221.5 18.88 221.5 36ZM222.5 36C222.5 19.433 235.93 6 252.5 6C269.07 6 282.5 19.433 282.5 36C282.5 52.567 269.07 66 252.5 66C235.93 66 222.5 52.567 222.5 36ZM229.5 35.998C229.5 48.7 239.798 58.996 252.5 58.996C265.202 58.996 275.5 48.7 275.5 35.998C275.5 23.297 265.202 13 252.5 13C239.798 13 229.5 23.297 229.5 35.998ZM228.5 36C228.5 22.747 239.244 12 252.5 12C265.756 12 276.5 22.747 276.5 36C276.5 49.253 265.757 60 252.5 60C239.243 60 228.5 49.253 228.5 36Z" fill="black"/>
<path fill-rule="evenodd" clip-rule="evenodd" d="M262.82 61.0781C271.949 57.1871 278.348 48.1511 278.348 37.6221C278.348 23.5401 266.902 12.1241 252.783 12.1241C238.664 12.1241 227.219 23.5401 227.219 37.6221C227.219 51.6621 238.597 63.0491 252.659 63.1161C252.615 63.1171 252.573 63.1201 252.53 63.1201C237.712 63.1201 225.7 51.1391 225.7 36.3601C225.7 21.5811 237.712 9.6001 252.53 9.6001C267.348 9.6001 279.36 21.5811 279.36 36.3601C279.36 47.5031 272.53 57.0511 262.82 61.0781ZM252.012 63.4201C268.565 63.4201 281.983 50.0371 281.983 33.5291C281.983 31.9891 281.866 30.4771 281.641 29.0001C282.198 31.2781 282.5 33.6561 282.5 36.1051C282.5 52.6151 269.081 65.9961 252.529 65.9961C237.519 65.9961 225.088 54.9931 222.9 40.6341C226.098 53.7111 237.915 63.4201 252.012 63.4201Z" fill="black" fill-opacity="0.1"/>
<path fill-rule="evenodd" clip-rule="evenodd" d="M252.5 18C262.441 18 270.5 26.059 270.5 36C270.5 45.941 262.441 54 252.5 54C242.559 54 234.5 45.941 234.5 36C234.5 26.059 242.559 18 252.5 18Z" fill="#F2F2F2"/>
<path d="M252.5 18C242.559 18 234.5 26.059 234.5 36C234.5 45.941 242.559 54 252.5 54C262.441 54 270.5 45.941 270.5 36C270.5 26.059 262.441 18 252.5 18ZM252.5 17C262.993 17 271.5 25.507 271.5 36C271.5 46.494 262.993 55 252.5 55C242.007 55 233.5 46.494 233.5 36C233.5 25.507 242.007 17 252.5 17Z" fill="black" fill-opacity="0.25"/>
<path fill-rule="evenodd" clip-rule="evenodd" d="M260.5 36C260.5 38.1217 259.657 40.1566 258.157 41.6569C256.657 43.1571 254.622 44 252.5 44C250.378 44 248.343 43.1571 246.843 41.6569C245.343 40.1566 244.5 38.1217 244.5 36C244.5 33.8783 245.343 31.8434 246.843 30.3431C248.343 28.8429 250.378 28 252.5 28C254.622 28 256.657 28.8429 258.157 30.3431C259.657 31.8434 260.5 33.8783 260.5 36Z" fill="black" fill-opacity="0.05"/>
<path d="M259.5 36C259.5 34.1435 258.762 32.363 257.45 31.0503C256.137 29.7375 254.357 29 252.5 29C250.643 29 248.863 29.7375 247.55 31.0503C246.237 32.363 245.5 34.1435 245.5 36C245.5 37.8565 246.237 39.637 247.55 40.9497C248.863 42.2625 250.643 43 252.5 43C254.357 43 256.137 42.2625 257.45 40.9497C258.762 39.637 259.5 37.8565 259.5 36ZM260.5 36C260.5 38.1217 259.657 40.1566 258.157 41.6569C256.657 43.1571 254.622 44 252.5 44C250.378 44 248.343 43.1571 246.843 41.6569C245.343 40.1566 244.5 38.1217 244.5 36C244.5 33.8783 245.343 31.8434 246.843 30.3431C248.343 28.8429 250.378 28 252.5 28C254.622 28 256.657 28.8429 258.157 30.3431C259.657 31.8434 260.5 33.8783 260.5 36Z" fill="black" fill-opacity="0.15"/>
<path d="M260.5 36C260.5 33.8783 259.657 31.8434 258.157 30.3431C256.657 28.8429 254.622 28 252.5 28C250.378 28 248.343 28.8429 246.843 30.3431C245.343 31.8434 244.5 33.8783 244.5 36C244.5 38.1217 245.343 40.1566 246.843 41.6569C248.343 43.1571 250.378 44 252.5 44C254.622 44 256.657 43.1571 258.157 41.6569C259.657 40.1566 260.5 38.1217 260.5 36ZM261.5 36C261.5 38.3869 260.552 40.6761 258.864 42.364C257.176 44.0518 254.887 45 252.5 45C250.113 45 247.824 44.0518 246.136 42.364C244.448 40.6761 243.5 38.3869 243.5 36C243.5 33.6131 244.448 31.3239 246.136 29.636C247.824 27.9482 250.113 27 252.5 27C254.887 27 257.176 27.9482 258.864 29.636C260.552 31.3239 261.5 33.6131 261.5 36Z" fill="white"/>
<path fill-rule="evenodd" clip-rule="evenodd" d="M248.5 32.358V24H256.5V37.93L254.5 39.786L256.5 41.642V50H248.5V36.071L250.5 34.214L248.5 32.358Z" fill="white"/>
<path fill-rule="evenodd" clip-rule="evenodd" d="M248.5 31.358V23H256.5V36.93L254.5 38.786L256.5 40.642V49H248.5V35.071L250.5 33.214L248.5 31.358Z" fill="#4D4D4D"/>
<path fill-rule="evenodd" clip-rule="evenodd" d="M249.5 32.215V25H255.5V37.358L254 39.071V40.079L255.5 41.988V49H249.5V36.62L251 34.943V33.929L249.5 32.215Z" fill="#808080"/>
</g>
<defs>
<clipPath id="clip0_868_2064">
<rect width="352" height="67" fill="white"/>
</clipPath>
</defs>
</svg>

<svg xmlns="http://www.w3.org/2000/svg" width="352" height="67" fill="none" viewBox="0 0 352 67"><g clip-path="url(#a)"><path fill="#171717" fill-rule="evenodd" d="M19.958 10.43v37.261c0 1.164.073 1.382 1.168 1.454l5.982.51v5.749H1.5v-5.748l6.273-.51c1.022-.073 1.168-.364 1.168-1.455V22.564c0-1.043-.788-.87-6.272.979L.646 17.576 13.18 10.43zm24.18.225h4.306c5.177 0 9.482 1.236 9.482 8.222 0 8.222-5.324 9.313-10.14 9.313h-3.648zm5.326 25.32h-5.326v11.643c0 1.165.074 1.31 1.169 1.455l10.432.582v5.748h-28.6v-5.748l4.596-.51c1.02-.144 1.169-.362 1.169-1.454V10.51c0-1.091-.148-1.383-1.169-1.456l-4.595-.509V2.724H51.87c13.499 0 17.583 7.131 17.583 15.498 0 12.66-7.66 17.754-19.99 17.754zM90.329 45.8c-1.677 1.236-4.158 2.62-6.64 2.62-2.406 0-4.157-1.092-4.157-4.003s1.532-4.002 5.835-4.292l4.962-.364zm33.537-13.897c5.763 1.309 12.257 3.347 12.257 11.86 0 8.876-7.222 12.515-16.488 12.515-6 0-11.866-1.424-13.912-2.344v1.47H92.299l-.73-3.929-.365-.072c-2.772 2.692-6.42 4.875-12.257 4.875-9.192 0-10.653-6.257-10.653-10.77 0-7.275 4.526-10.622 13.645-11.204l8.39-.582V29.72c0-3.42-.364-5.748-4.89-5.748-3.5 0-5.324.509-5.324 4.875l-10.288-.874c0-9.822 8.975-11.206 15.686-11.206 11.09 0 15.54 2.985 15.54 13.171v17.681c0 1.164.073 1.31 1.167 1.455l2.969.493v-6.46l7.806.583.73 4.147c.072.655.22.946.876 1.091.875.292 2.845.728 5.618.728 3.866 0 6.054-1.09 6.054-3.783 0-2.91-2.918-3.784-6.638-4.439-6.128-1.091-14.154-2.4-14.154-11.932 0-9.023 7.733-12.735 16.123-12.735 5.763 0 11.381 1.311 13.425 2.11v10.551l-7.807-.508-.73-3.785c-.072-.582-.219-.872-.728-1.018-.949-.29-2.7-.582-4.67-.582-3.648 0-5.691 1.382-5.691 3.71 0 2.984 4.013 3.638 8.463 4.658m212.023 12.66c-1.97 1.674-4.669 3.129-7.149 3.129-4.598 0-6.64-3.93-6.64-10.987 0-6.476 2.115-11.497 7.515-11.497 2.114 0 4.45.946 6.274 2.184zm12.11 4.584 3.501.51v5.748h-13.57l-.728-4.075-.511-.074c-3.064 2.984-6.638 5.021-11.964 5.021-8.608 0-14.154-5.457-14.154-19.354 0-14.625 7.367-20.155 15.466-20.155 4.232 0 7.514 1.455 10.288 3.493V9.2c0-.728-.293-1.237-.949-1.455l-4.013-1.383.802-5.894h14.665v47.295c0 1.092.073 1.239 1.167 1.384M225.142 23.898c-1.02.145-1.458.51-1.75 1.455l-8.973 30.05H202.89L197.2 31.03h-.437l-5.764 24.374h-13.133l-9.193-30.122c-.29-.874-.657-1.02-1.532-1.238l-.71-.151v5.535l-7.806-.508-.73-3.785c-.072-.582-.219-.872-.728-1.018-.95-.29-2.7-.582-4.67-.582-3.648 0-5.692 1.382-5.692 3.71 0 2.984 4.014 3.64 8.464 4.658 5.763 1.309 12.257 3.347 12.257 11.86 0 8.877-7.222 12.515-16.489 12.515-6.639 0-13.132-1.747-14.446-2.62v-10.55l7.807.582.73 4.147c.072.655.22.946.876 1.091.875.292 2.845.728 5.618.728 3.865 0 6.054-1.09 6.054-3.783 0-2.91-2.918-3.784-6.639-4.439-6.128-1.091-14.153-2.4-14.153-11.932 0-9.023 7.733-12.735 16.123-12.735 4.765 0 9.426.896 12.054 1.659l.184-.93h18.458v6.039l-4.086.437 5.837 20.445h.511l6.492-25.976h11.018l6.275 25.976h.437l5.472-20.445-4.159-.437.947-6.039h15.323v2.145a30 30 0 0 0-2.396 4.213zm75.44 1.819c-1.896 0-4.157 1.6-5.252 2.547v19.281c0 1.164.074 1.382 1.169 1.456l7.221.581v5.822h-23.858V49.51l3.285-.437c1.02-.146 1.166-.364 1.166-1.455v-21.32c0-.8-.219-1.309-.947-1.527l-3.51-1.23c-.113-.238-.237-.468-.356-.7l.729-5.346h12.84l.875 5.82h.438c2.407-3.71 5.618-6.548 10.287-6.548 1.677 0 5.033.291 6.347.655v13.243l-8.754-.291-.729-3.857c-.146-.655-.366-.8-.951-.8" clip-rule="evenodd"/><path fill="#198cff" fill-rule="evenodd" d="M252.5 12c13.255 0 24 10.745 24 24s-10.745 24-24 24-24-10.745-24-24 10.745-24 24-24" clip-rule="evenodd"/><path fill="#fff" fill-rule="evenodd" d="M222.5 36c0-16.569 13.431-30 30-30s30 13.431 30 30-13.431 30-30 30-30-13.43-30-30m6 0c0 13.255 10.745 24 24 24s24-10.745 24-24-10.745-24-24-24-24 10.745-24 24" clip-rule="evenodd"/><path fill="#000" d="M221.5 36c0 17.121 13.88 31 31 31s31-13.879 31-31c0-17.12-13.88-31-31-31s-31 13.88-31 31m1 0c0-16.567 13.43-30 30-30s30 13.433 30 30-13.43 30-30 30-30-13.433-30-30m7-.002c0 12.702 10.298 22.998 23 22.998s23-10.296 23-22.998c0-12.701-10.298-22.998-23-22.998s-23 10.297-23 22.998m-1 .002c0-13.253 10.744-24 24-24s24 10.747 24 24-10.743 24-24 24-24-10.747-24-24" opacity=".5"/><path fill="#000" fill-opacity=".1" fill-rule="evenodd" d="M262.82 61.078c9.129-3.89 15.528-12.927 15.528-23.456 0-14.082-11.446-25.498-25.565-25.498s-25.564 11.416-25.564 25.498c0 14.04 11.378 25.427 25.44 25.494q-.065.003-.129.004c-14.818 0-26.83-11.98-26.83-26.76 0-14.779 12.012-26.76 26.83-26.76s26.83 11.981 26.83 26.76c0 11.143-6.83 20.691-16.54 24.718m-10.808 2.342c16.553 0 29.971-13.383 29.971-29.89 0-1.54-.117-3.053-.342-4.53.557 2.278.859 4.656.859 7.105 0 16.51-13.419 29.891-29.971 29.891-15.01 0-27.441-11.003-29.629-25.362 3.198 13.077 15.015 22.786 29.112 22.786" clip-rule="evenodd"/><path fill="#f2f2f2" fill-rule="evenodd" d="M252.5 18c9.941 0 18 8.059 18 18s-8.059 18-18 18-18-8.059-18-18 8.059-18 18-18" clip-rule="evenodd"/><path fill="#000" fill-opacity=".25" d="M252.5 18c-9.941 0-18 8.059-18 18s8.059 18 18 18 18-8.059 18-18-8.059-18-18-18m0-1c10.493 0 19 8.507 19 19s-8.507 19-19 19-19-8.506-19-19 8.507-19 19-19"/><path fill="#000" fill-opacity=".05" fill-rule="evenodd" d="M260.5 36a8.001 8.001 0 0 1-13.657 5.657 8.001 8.001 0 0 1 11.314-11.314A8 8 0 0 1 260.5 36" clip-rule="evenodd"/><path fill="#000" fill-opacity=".15" d="M259.5 36a7.003 7.003 0 0 0-7-7 7 7 0 1 0 7 7m1 0a8.001 8.001 0 0 1-13.657 5.657 8.001 8.001 0 0 1 11.314-11.314A8 8 0 0 1 260.5 36"/><path fill="#fff" d="M260.5 36a8.001 8.001 0 0 0-13.657-5.657 8.001 8.001 0 0 0 11.314 11.314A8 8 0 0 0 260.5 36m1 0a9 9 0 1 1-18 0 9 9 0 0 1 18 0"/><path fill="#fff" fill-rule="evenodd" d="M248.5 32.358V24h8v13.93l-2 1.856 2 1.856V50h-8V36.071l2-1.857z" clip-rule="evenodd"/><path fill="#4d4d4d" fill-rule="evenodd" d="M248.5 31.358V23h8v13.93l-2 1.856 2 1.856V49h-8V35.071l2-1.857z" clip-rule="evenodd"/><path fill="gray" fill-rule="evenodd" d="M249.5 32.215V25h6v12.358l-1.5 1.713v1.008l1.5 1.909V49h-6V36.62l1.5-1.677v-1.014z" clip-rule="evenodd"/></g><defs><clipPath id="a"><path fill="#fff" d="M0 0h352v67H0z"/></clipPath></defs></svg>
